X: 139
T:Cameronian
M:C
L:1/8
K:D
[|A2 FA DAFA | GFEF GABd | (3AAA FA DAFA | GBAG FD (3DDD |
AF ~F2  DF ~F2 | GFEF GABd | (3AAA FA DFAF | GBAG FD D2  |]
[| Addc (3ddd dA | (3Bcd ef gfed | (3cBA eA fAeA | (3ccd ef gfeg |
faeg faeg | fdec defg |  afge fdec | dBAG FD (3DDD |]
